X:33
T:Prince of Wales March. TLY.033
M:4/4
L:1/8
Q:1/2=70
S:Wm.Tildesley,Swinton,Lancs.1860s.
R:.March
O:England.
A:Lancashire.
N:Last quaver bar 2 marked p, last crotchet bar 4 marked
H:1860.
Z:vmp.Taz Tarry.
K:C
G2|c3G c>Gc>e|g3e g2 zâ€^Pâ€ e|d2d2e2g2|(gfef) e2â€³^Fâ€G2|\
c3G c>Gc>e|g3e g2 (gcâ€™)|a2 a>a (acâ€™bcâ€™) (dâ€™câ€™ba)|\
{a}g2 (eg) {g}f2 df|\
{f}e2 (ce) {e}d2 (B/2c/2d/2e/2)|d2g2g2 z2|\
â€œ^Pâ€d2(B/c/d/e/) (d/c/B/d/) (e/^f/g/a/)|\
.b.b.b.b (b/a/g/^f/) (g/f/e/d/)|\
(c/B/c/d/)c2(c/A/B/c/) (d/e/^f/g/)|\
.a.a.a.a (a/g/^f/e/) (d/c/B/c/)|\
(Bg)g3(gbg)|\
(^de)e3(^fge)|dg (^f/e/d/c/)B2~A2|G2g>gg2:|\
|:â€^Pâ€(B>c)|d3cB2â€³^Fâ€.g.^f|.e.d.c.B .A.B.c.d|\
â€œ^Pâ€c3BA2â€³^Fâ€.a.g.|.^f.e.d.e .d.c.B.c|\
.B.c.d.e .^f.g.a.b|e(câ€™/b/) (dâ€™/câ€™/b/a/)g2^f2|\
g2g2g2(g>f)|e2(g>f)e2g2|\
g2e2f2(f>e)|d2(f>e)d2f2|(gf).e.d e2â€³^Fâ€(câ€™b)|\
.a(câ€™/b/) (dâ€™/câ€™/b/a/) g(e/g/) (g/f/e/d/)|\
c>ce>e g>gcâ€™>câ€™|a>a (~a^g/a/)|f>f (fe/f/)|dd (c/B/A/G/) cegcâ€™|\
g(e/f/) ge cc/c/ cc|ee/e/ ee gg/g/ gg|câ€™2câ€™>câ€™câ€™2:|\
|BB/2B/2 BB BBBB|BB/2B/2 BB BBBB|\
BB/2B/2 BB/2B/2 (B/2G/2).A/2.B/2 .c/2.d/2.e/2.f/2|\
â€œ^FFâ€[g4B4D4]g3 g|gg/2g/2 gg gggg|gg/2g/2 gg gggg|gg/2g/2 gg/2g/2 g2||\
â€œ^P Flutes 8vaâ€Bc|e>d (d2d).e.f.g|(g>d) B2 z2 B>d|\
c2dc B>AB>c|(B>A) A2 z2 (AB)|\
c4 {dc}(BAGF)|d4 {ed^c} (defg)|g4 fedc|â€^8vaâ€(Bc^cd) (AB=c^c)|\
(ed) (.d2d).e.f.g |g>d B2 z2 (Bd)|c2 d>c (BABc)|BA A2 z2 AB|\
c4 (BAGF)|d4 (^cdef)|(ge)cA (FA)dc|(c4B2) (AB)|c4 (BAGF)|\
(d4d)efg|g3d d^c=cA|â€^FFâ€G4 z2 B2|\
d2 g2 b2 g2|â€^FFâ€(d4d)(e/d/) (c/B/A/G/)|\
.F.G.A.B .c.d.e.f|â€^FFâ€[D4c4g4] z2 B2|d2 g2 b2 g2|\
(d4d)(e/d/) c/2B/2A/2G/2|F2 A2 c2 F2|\
.G.g.f.e .d.c.B.A|GABc defg|g2 B>B c>c^c>c|d>de>e d2f2|\
â€œ^Fâ€gg/2g/2 gg .g.d.g.b|\
â€œ^Cres.â€gg/2g/2 gg .g.d.g.b|â€^Fâ€gdgb â€œ^FFâ€gdgb|\
â€œ^FFâ€[D4B4g4] [D3B3g3] [DBg]|[D4B4g4]z4|]

